X: 1
T:Hammy Hamilton's # 1
M:6/8
L:1/8
R:Jig
K:G
Bc |: dBG cGE | DED ~G3 | ~B3 dcB | dcB ABc |
dBG cGE | DED ~G3 | ~B3 dcA |1 AGF GBc :|2 AGF G2B |:
dBd ede | ~f3 ~g3 | ege dBd | dcB ABc |1
dBd ede | ~f3 ~g3 | ege edB | AGF G2B :|2
dBG cGE | DED ~G3 | ~B3 dcA | AGF G3 ||
